X:93
T:Tarbolton, The
S:The Session: https://thesession.org/tunes/560#setting55401
C:Traditional
R:reel
K:Edor
M:4/4
L:1/8
Q:1/4=120
D|:"Em" Eeed e2 BA| GBAF GFEF| "D"Dddc d2 AF| GBAG FDDF| 
| "Em"Eeed efge| "D"fedf "Em"edBA| GABG "D"FGA=c|1 BGAF "Em"GE ED:|2 BGAF "Em"GE eg |]
|: "Em"gfef (3gfe be| gebe gfef| "D"d2 fd adfd| ABAG FDDF|
| "Em"(3GGG BG "D"(3FFF AF| "Em"Eeef gfed| B2 dB AGFA|1 "D"BGAF "Em"GE E e:|2 "D"BGAF GE E2 |]

